icons/Filled/watch-square.svg

<svg width="24" height="24" viewBox="0 0 24 24" fill="none" xmlns="http://www.w3.org/2000/svg">
<path fill-rule="evenodd" clip-rule="evenodd" d="M7.75 3C7.75 2.586 8.086 2.25 8.5 2.25H14.5C14.914 2.25 15.25 2.586 15.25 3C15.25 3.414 14.914 3.75 14.5 3.75H8.5C8.086 3.75 7.75 3.414 7.75 3ZM14.5 20.25H8.5C8.086 20.25 7.75 20.586 7.75 21C7.75 21.414 8.086 21.75 8.5 21.75H14.5C14.914 21.75 15.25 21.414 15.25 21C15.25 20.586 14.914 20.25 14.5 20.25ZM19.75 11.75C19.75 12.16 19.42 12.5 19 12.5H18V15.5C18 17.5 17 18.5 15 18.5H8C6 18.5 5 17.5 5 15.5V8.5C5 6.5 6 5.5 8 5.5H15C17 5.5 18 6.5 18 8.5V11H19C19.42 11 19.75 11.34 19.75 11.75ZM13.95 12.8999L12.25 11.625V8.5C12.25 8.086 11.914 7.75 11.5 7.75C11.086 7.75 10.75 8.086 10.75 8.5V12C10.75 12.236 10.861 12.4581 11.05 12.6001L13.05 14.1001C13.185 14.2011 13.343 14.25 13.499 14.25C13.728 14.25 13.9531 14.146 14.1001 13.95C14.3491 13.619 14.281 13.1479 13.95 12.8999Z" fill="#25314C"/>
</svg>

<svg id="Layer" xmlns="http://www.w3.org/2000/svg" viewBox="0 0 24 24"><defs><style>.cls-1{fill:#25314c;fill-rule:evenodd;}</style></defs><path id="watch-square" class="cls-1" d="M7.75,3a.75.75,0,0,1,.75-.75h6a.75.75,0,0,1,0,1.5h-6A.75.75,0,0,1,7.75,3ZM14.5,20.25h-6a.75.75,0,0,0,0,1.5h6a.75.75,0,0,0,0-1.5Zm5.25-8.5a.749.749,0,0,1-.75.75H18v3a2.652,2.652,0,0,1-3,3H8a2.652,2.652,0,0,1-3-3v-7a2.652,2.652,0,0,1,3-3h7a2.652,2.652,0,0,1,3,3V11h1A.749.749,0,0,1,19.75,11.75Zm-5.8,1.15-1.7-1.275V8.5a.75.75,0,0,0-1.5,0V12a.75.75,0,0,0,.3.6l2,1.5a.75.75,0,0,0,.9-1.2Z"/></svg>
